images/indikatorenset/4874.svg

<?xml version="1.0" standalone="no"?><!DOCTYPE svg PUBLIC "-//W3C//DTD SVG 1.1//EN" "http://www.w3.org/Graphics/SVG/1.1/DTD/svg11.dtd"><svg xmlns:xlink="http://www.w3.org/1999/xlink" version="1.1" class="highcharts-root" style="font-family:Arial;font-size:12px;" xmlns="http://www.w3.org/2000/svg" viewBox="0 0 485 415"><desc>Created with Highstock 5.0.7</desc><defs><clipPath id="highcharts-2m0gl8j-1"><rect x="0" y="0" width="288" height="295" fill="none"></rect></clipPath><clipPath id="highcharts-2m0gl8j-2"><rect x="0" y="0" width="288" height="295" fill="none"></rect></clipPath></defs><rect fill="#fbfbfb" class="highcharts-background" x="0" y="0" width="485" height="415" rx="0" ry="0"></rect><rect fill="none" class="highcharts-plot-background" x="53" y="55" width="288" height="295"></rect><g class="highcharts-grid highcharts-xaxis-grid "><path fill="none" class="highcharts-grid-line" d="M 196.5 55 L 196.5 350" opacity="1"></path><path fill="none" class="highcharts-grid-line" d="M 340.5 55 L 340.5 350" opacity="1"></path><path fill="none" class="highcharts-grid-line" d="M 52.5 55 L 52.5 350" opacity="1"></path></g><g class="highcharts-grid highcharts-yaxis-grid "><path fill="none" stroke="#e6e6e6" stroke-width="1" class="highcharts-grid-line" d="M 53 350.5 L 341 350.5" opacity="1"></path><path fill="none" stroke="#e6e6e6" stroke-width="1" class="highcharts-grid-line" d="M 53 321.5 L 341 321.5" opacity="1"></path><path fill="none" stroke="#e6e6e6" stroke-width="1" class="highcharts-grid-line" d="M 53 291.5 L 341 291.5" opacity="1"></path><path fill="none" stroke="#e6e6e6" stroke-width="1" class="highcharts-grid-line" d="M 53 262.5 L 341 262.5" opacity="1"></path><path fill="none" stroke="#e6e6e6" stroke-width="1" class="highcharts-grid-line" d="M 53 232.5 L 341 232.5" opacity="1"></path><path fill="none" stroke="#e6e6e6" stroke-width="1" class="highcharts-grid-line" d="M 53 203.5 L 341 203.5" opacity="1"></path><path fill="none" stroke="#e6e6e6" stroke-width="1" class="highcharts-grid-line" d="M 53 173.5 L 341 173.5" opacity="1"></path><path fill="none" stroke="#e6e6e6" stroke-width="1" class="highcharts-grid-line" d="M 53 144.5 L 341 144.5" opacity="1"></path><path fill="none" stroke="#e6e6e6" stroke-width="1" class="highcharts-grid-line" d="M 53 114.5 L 341 114.5" opacity="1"></path><path fill="none" stroke="#e6e6e6" stroke-width="1" class="highcharts-grid-line" d="M 53 85.5 L 341 85.5" opacity="1"></path><path fill="none" stroke="#e6e6e6" stroke-width="1" class="highcharts-grid-line" d="M 53 54.5 L 341 54.5" opacity="1"></path></g><rect fill="none" class="highcharts-plot-border" x="53" y="55" width="288" height="295"></rect><g class="highcharts-axis highcharts-xaxis "><path fill="none" class="highcharts-tick" stroke="#FFFFFF" stroke-width="1" d="M 196.5 350 L 196.5 360" opacity="1"></path><path fill="none" class="highcharts-tick" stroke="#FFFFFF" stroke-width="1" d="M 341.5 350 L 341.5 360" opacity="1"></path><path fill="none" class="highcharts-tick" stroke="#FFFFFF" stroke-width="1" d="M 52.5 350 L 52.5 360" opacity="1"></path><path fill="none" class="highcharts-axis-line" stroke="#ccd6eb" stroke-width="1" d="M 53 350.5 L 341 350.5"></path></g><g class="highcharts-axis highcharts-yaxis "><path fill="none" class="highcharts-axis-line" d="M 53 55 L 53 350"></path></g><g class="highcharts-series-group"><g class="highcharts-series highcharts-series-0 highcharts-column-series highcharts-color-undefined highcharts-tracker" transform="translate(53,55) scale(1 1)" clip-path="url(#highcharts-2m0gl8j-2)"><rect x="36.5" y="213.5" width="70" height="82" fill="#007A2F" class="highcharts-point" stroke="#ffffff" stroke-width="1"></rect><rect x="180.5" y="202.5" width="70" height="93" fill="#007A2F" class="highcharts-point" stroke="#ffffff" stroke-width="1"></rect></g><g class="highcharts-markers highcharts-series-0 highcharts-column-series highcharts-color-undefined " transform="translate(53,55) scale(1 1)" clip-path="none"></g><g class="highcharts-series highcharts-series-1 highcharts-column-series highcharts-color-undefined highcharts-tracker" transform="translate(53,55) scale(1 1)" clip-path="url(#highcharts-2m0gl8j-2)"><rect x="36.5" y="89.5" width="70" height="124" fill="#73BA7C" class="highcharts-point" stroke="#ffffff" stroke-width="1"></rect><rect x="180.5" y="69.5" width="70" height="133" fill="#73BA7C" class="highcharts-point" stroke="#ffffff" stroke-width="1"></rect></g><g class="highcharts-markers highcharts-series-1 highcharts-column-series highcharts-color-undefined " transform="translate(53,55) scale(1 1)" clip-path="none"></g><g class="highcharts-series highcharts-series-2 highcharts-column-series highcharts-color-undefined highcharts-tracker" transform="translate(53,55) scale(1 1)" clip-path="url(#highcharts-2m0gl8j-2)"><rect x="36.5" y="63.5" width="70" height="26" fill="#C8C8C8" class="highcharts-point" stroke="#ffffff" stroke-width="1"></rect><rect x="180.5" y="57.5" width="70" height="12" fill="#C8C8C8" class="highcharts-point" stroke="#ffffff" stroke-width="1"></rect></g><g class="highcharts-markers highcharts-series-2 highcharts-column-series highcharts-color-undefined " transform="translate(53,55) scale(1 1)" clip-path="none"></g><g class="highcharts-series highcharts-series-3 highcharts-column-series highcharts-color-undefined highcharts-tracker" transform="translate(53,55) scale(1 1)" clip-path="url(#highcharts-2m0gl8j-2)"><rect x="36.5" y="10.5" width="70" height="53" fill="#FFBB58" class="highcharts-point" stroke="#ffffff" stroke-width="1"></rect><rect x="180.5" y="8.5" width="70" height="49" fill="#FFBB58" class="highcharts-point" stroke="#ffffff" stroke-width="1"></rect></g><g class="highcharts-markers highcharts-series-3 highcharts-column-series highcharts-color-undefined " transform="translate(53,55) scale(1 1)" clip-path="none"></g><g class="highcharts-series highcharts-series-4 highcharts-column-series highcharts-color-undefined highcharts-tracker" transform="translate(53,55) scale(1 1)" clip-path="url(#highcharts-2m0gl8j-2)"><rect x="36.5" y="-0.5" width="70" height="11" fill="#FF8028" class="highcharts-point" stroke="#ffffff" stroke-width="1"></rect><rect x="180.5" y="-0.5" width="70" height="9" fill="#FF8028" class="highcharts-point" stroke="#ffffff" stroke-width="1"></rect></g><g class="highcharts-markers highcharts-series-4 highcharts-column-series highcharts-color-undefined " transform="translate(53,55) scale(1 1)" clip-path="none"></g></g><text x="10" text-anchor="start" class="highcharts-title" style="color:#000000;font-size:14px;font-weight:bold;fill:#000000;" y="21"><tspan>Beschäftigung mit dem Thema Politik</tspan></text><text x="10" text-anchor="start" class="highcharts-subtitle" style="color:#000000;font-size:12px;fill:#000000;" y="40"><tspan>«Wie stark beschäftigt Sie im Moment das Thema Politik?»</tspan></text><g class="highcharts-legend" transform="translate(353,145)"><rect fill="none" class="highcharts-legend-box" rx="0" ry="0" x="0" y="0" width="121" height="106" visibility="visible"></rect><g><g><g class="highcharts-legend-item highcharts-column-series highcharts-color-undefined highcharts-series-4" transform="translate(8,3)"><text x="21" style="color:#333333;font-size:12px;font-weight:normal;cursor:pointer;fill:#333333;" text-anchor="start" y="15"><tspan>Überhaupt nicht</tspan></text><rect x="2" y="4" width="12" height="12" fill="#FF8028" class="highcharts-point"></rect></g><g class="highcharts-legend-item highcharts-column-series highcharts-color-undefined highcharts-series-3" transform="translate(8,22)"><text x="21" y="15" style="color:#333333;font-size:12px;font-weight:normal;cursor:pointer;fill:#333333;" text-anchor="start"><tspan>Eher nicht</tspan></text><rect x="2" y="4" width="12" height="12" fill="#FFBB58" class="highcharts-point"></rect></g><g class="highcharts-legend-item highcharts-column-series highcharts-color-undefined highcharts-series-2" transform="translate(8,41)"><text x="21" y="15" style="color:#333333;font-size:12px;font-weight:normal;cursor:pointer;fill:#333333;" text-anchor="start"><tspan>Keine Angabe</tspan></text><rect x="2" y="4" width="12" height="12" fill="#C8C8C8" class="highcharts-point"></rect></g><g class="highcharts-legend-item highcharts-column-series highcharts-color-undefined highcharts-series-1" transform="translate(8,60)"><text x="21" y="15" style="color:#333333;font-size:12px;font-weight:normal;cursor:pointer;fill:#333333;" text-anchor="start"><tspan>Eher stark</tspan></text><rect x="2" y="4" width="12" height="12" fill="#73BA7C" class="highcharts-point"></rect></g><g class="highcharts-legend-item highcharts-column-series highcharts-color-undefined highcharts-series-0" transform="translate(8,79)"><text x="21" y="15" style="color:#333333;font-size:12px;font-weight:normal;cursor:pointer;fill:#333333;" text-anchor="start"><tspan>Sehr stark</tspan></text><rect x="2" y="4" width="12" height="12" fill="#007A2F" class="highcharts-point"></rect></g></g></g></g><g class="highcharts-axis-labels highcharts-xaxis-labels "><text x="125" style="color:#000000;cursor:default;font-size:11px;fill:#000000;" text-anchor="middle" transform="translate(0,0)" y="369" opacity="1"><tspan>2011</tspan><tspan x="125" dy="14">(N=1689)</tspan></text><text x="269" style="color:#000000;cursor:default;font-size:11px;fill:#000000;" text-anchor="middle" transform="translate(0,0)" y="369" opacity="1"><tspan>2015</tspan><tspan x="269" dy="14">(N=1427)</tspan></text></g><g class="highcharts-axis-labels highcharts-yaxis-labels "><text x="38" style="color:#000000;cursor:default;font-size:11px;fill:#000000;" text-anchor="end" transform="translate(0,0)" y="355" opacity="1"><tspan>0%</tspan></text><text x="38" style="color:#000000;cursor:default;font-size:11px;fill:#000000;" text-anchor="end" transform="translate(0,0)" y="325" opacity="1"><tspan>10%</tspan></text><text x="38" style="color:#000000;cursor:default;font-size:11px;fill:#000000;" text-anchor="end" transform="translate(0,0)" y="296" opacity="1"><tspan>20%</tspan></text><text x="38" style="color:#000000;cursor:default;font-size:11px;fill:#000000;" text-anchor="end" transform="translate(0,0)" y="266" opacity="1"><tspan>30%</tspan></text><text x="38" style="color:#000000;cursor:default;font-size:11px;fill:#000000;" text-anchor="end" transform="translate(0,0)" y="237" opacity="1"><tspan>40%</tspan></text><text x="38" style="color:#000000;cursor:default;font-size:11px;fill:#000000;" text-anchor="end" transform="translate(0,0)" y="207" opacity="1"><tspan>50%</tspan></text><text x="38" style="color:#000000;cursor:default;font-size:11px;fill:#000000;" text-anchor="end" transform="translate(0,0)" y="178" opacity="1"><tspan>60%</tspan></text><text x="38" style="color:#000000;cursor:default;font-size:11px;fill:#000000;" text-anchor="end" transform="translate(0,0)" y="148" opacity="1"><tspan>70%</tspan></text><text x="38" style="color:#000000;cursor:default;font-size:11px;fill:#000000;" text-anchor="end" transform="translate(0,0)" y="119" opacity="1"><tspan>80%</tspan></text><text x="38" style="color:#000000;cursor:default;font-size:11px;fill:#000000;" text-anchor="end" transform="translate(0,0)" y="89" opacity="1"><tspan>90%</tspan></text><text x="38" style="color:#000000;cursor:default;font-size:11px;fill:#000000;" text-anchor="end" transform="translate(0,0)" y="60" opacity="1"><tspan>100%</tspan></text></g><text x="10" class="highcharts-credits" text-anchor="start" style="cursor:default;color:#000000;font-size:10px;fill:#000000;" y="400"><tspan>Quelle: Statistisches Amt Basel-Stadt, kantonale Befragung 55plus: F57a</tspan></text></svg>

<svg class="highcharts-root" xmlns="http://www.w3.org/2000/svg" viewBox="0 0 485 415" font-family="Arial" font-size="12">
    <defs>
        <clipPath id="a">
            <path fill="none" d="M0 0h288v295H0z"/>
        </clipPath>
    </defs>
    <rect fill="#fbfbfb" class="highcharts-background" width="485" height="415" rx="0" ry="0"/>
    <path fill="none" class="highcharts-plot-background" d="M53 55h288v295H53z"/>
    <g class="highcharts-grid highcharts-xaxis-grid">
        <path fill="none" class="highcharts-grid-line" d="M196.5 55v295m144-295v295M52.5 55v295"/>
    </g>
    <g class="highcharts-grid highcharts-yaxis-grid">
        <path fill="none" stroke="#e6e6e6" class="highcharts-grid-line" d="M53 350.5h288m-288-29h288m-288-30h288m-288-29h288m-288-30h288m-288-29h288m-288-30h288m-288-29h288m-288-30h288m-288-29h288m-288-31h288"/>
    </g>
    <path fill="none" class="highcharts-plot-border" d="M53 55h288v295H53z"/>
    <g class="highcharts-axis highcharts-xaxis">
        <path fill="none" class="highcharts-tick" stroke="#FFF" d="M196.5 350v10m145-10v10m-289-10v10"/>
        <path fill="none" class="highcharts-axis-line" stroke="#ccd6eb" d="M53 350.5h288"/>
    </g>
    <g class="highcharts-axis highcharts-yaxis">
        <path fill="none" class="highcharts-axis-line" d="M53 55v295"/>
    </g>
    <g class="highcharts-series-group">
        <g class="highcharts-series highcharts-series-0 highcharts-column-series highcharts-color-undefined highcharts-tracker" transform="translate(53 55)" clip-path="url(#a)">
            <path fill="#007A2F" class="highcharts-point" stroke="#fff" d="M36.5 213.5h70v82h-70zm144-11h70v93h-70z"/>
        </g>
        <g class="highcharts-series highcharts-series-1 highcharts-column-series highcharts-color-undefined highcharts-tracker" transform="translate(53 55)" clip-path="url(#a)">
            <path fill="#73BA7C" class="highcharts-point" stroke="#fff" d="M36.5 89.5h70v124h-70zm144-20h70v133h-70z"/>
        </g>
        <g class="highcharts-series highcharts-series-2 highcharts-column-series highcharts-color-undefined highcharts-tracker" transform="translate(53 55)" clip-path="url(#a)">
            <path fill="#C8C8C8" class="highcharts-point" stroke="#fff" d="M36.5 63.5h70v26h-70zm144-6h70v12h-70z"/>
        </g>
        <g class="highcharts-series highcharts-series-3 highcharts-column-series highcharts-color-undefined highcharts-tracker" transform="translate(53 55)" clip-path="url(#a)">
            <path fill="#FFBB58" class="highcharts-point" stroke="#fff" d="M36.5 10.5h70v53h-70zm144-2h70v49h-70z"/>
        </g>
        <g class="highcharts-series highcharts-series-4 highcharts-column-series highcharts-color-undefined highcharts-tracker" transform="translate(53 55)" clip-path="url(#a)">
            <path fill="#FF8028" class="highcharts-point" stroke="#fff" d="M36.5-.5h70v11h-70zm144 0h70v9h-70z"/>
        </g>
    </g>
    <text x="10" class="highcharts-title" y="21" color="#000" font-size="14" font-weight="700">
        <tspan>Beschäftigung mit dem Thema Politik</tspan>
    </text>
    <text x="10" class="highcharts-subtitle" y="40" color="#000">
        <tspan>«Wie stark beschäftigt Sie im Moment das Thema Politik?»</tspan>
    </text>
    <g class="highcharts-legend" transform="translate(353 145)">
        <rect fill="none" class="highcharts-legend-box" rx="0" ry="0" width="121" height="106"/>
        <g class="highcharts-legend-item highcharts-column-series highcharts-color-undefined highcharts-series-4">
            <text x="21" y="15" color="#333" font-weight="400" cursor="pointer" fill="#333" transform="translate(8 3)">
                <tspan>Überhaupt nicht</tspan>
            </text>
            <path fill="#FF8028" class="highcharts-point" d="M10 7h12v12H10z"/>
        </g>
        <g class="highcharts-legend-item highcharts-column-series highcharts-color-undefined highcharts-series-3">
            <text x="21" y="15" color="#333" font-weight="400" cursor="pointer" fill="#333" transform="translate(8 22)">
                <tspan>Eher nicht</tspan>
            </text>
            <path fill="#FFBB58" class="highcharts-point" d="M10 26h12v12H10z"/>
        </g>
        <g class="highcharts-legend-item highcharts-column-series highcharts-color-undefined highcharts-series-2">
            <text x="21" y="15" color="#333" font-weight="400" cursor="pointer" fill="#333" transform="translate(8 41)">
                <tspan>Keine Angabe</tspan>
            </text>
            <path fill="#C8C8C8" class="highcharts-point" d="M10 45h12v12H10z"/>
        </g>
        <g class="highcharts-legend-item highcharts-column-series highcharts-color-undefined highcharts-series-1">
            <text x="21" y="15" color="#333" font-weight="400" cursor="pointer" fill="#333" transform="translate(8 60)">
                <tspan>Eher stark</tspan>
            </text>
            <path fill="#73BA7C" class="highcharts-point" d="M10 64h12v12H10z"/>
        </g>
        <g class="highcharts-legend-item highcharts-column-series highcharts-color-undefined highcharts-series-0">
            <text x="21" y="15" color="#333" font-weight="400" cursor="pointer" fill="#333" transform="translate(8 79)">
                <tspan>Sehr stark</tspan>
            </text>
            <path fill="#007A2F" class="highcharts-point" d="M10 83h12v12H10z"/>
        </g>
    </g>
    <g class="highcharts-axis-labels highcharts-xaxis-labels" text-anchor="middle" color="#000" cursor="default" font-size="11">
        <text x="125" y="369">
            <tspan>2011</tspan><tspan x="125" dy="14">(N=1689)</tspan>
        </text>
        <text x="269" y="369">
            <tspan>2015</tspan><tspan x="269" dy="14">(N=1427)</tspan>
        </text>
    </g>
    <g class="highcharts-axis-labels highcharts-yaxis-labels" text-anchor="end" color="#000" cursor="default" font-size="11">
        <text x="38" y="355">
            <tspan>0%</tspan>
        </text>
        <text x="38" y="325">
            <tspan>10%</tspan>
        </text>
        <text x="38" y="296">
            <tspan>20%</tspan>
        </text>
        <text x="38" y="266">
            <tspan>30%</tspan>
        </text>
        <text x="38" y="237">
            <tspan>40%</tspan>
        </text>
        <text x="38" y="207">
            <tspan>50%</tspan>
        </text>
        <text x="38" y="178">
            <tspan>60%</tspan>
        </text>
        <text x="38" y="148">
            <tspan>70%</tspan>
        </text>
        <text x="38" y="119">
            <tspan>80%</tspan>
        </text>
        <text x="38" y="89">
            <tspan>90%</tspan>
        </text>
        <text x="38" y="60">
            <tspan>100%</tspan>
        </text>
    </g>
    <text x="10" class="highcharts-credits" y="400" cursor="default" color="#000" font-size="10">
        <tspan>Quelle: Statistisches Amt Basel-Stadt, kantonale Befragung 55plus: F57a</tspan>
    </text>
</svg>
